press_kit/Bazzite_Color_Long.svg

<?xml version="1.0" encoding="UTF-8" standalone="no"?>
<svg
   width="1964"
   height="608"
   viewBox="0 0 1964 608"
   fill="none"
   version="1.1"
   id="svg18"
   xmlns="http://www.w3.org/2000/svg"
   xmlns:svg="http://www.w3.org/2000/svg">
  <path
     d="M 100,181.6 C 100,136.534 136.534,100 181.6,100 H 304 c 112.666,0 204,91.334 204,204 0,112.666 -91.334,204 -204,204 -112.666,0 -204,-91.334 -204,-204 z"
     fill="url(#paint0_linear_1016_57)"
     id="path1"
     style="fill:url(#paint0_linear_1016_57)" />
  <path
     fill-rule="evenodd"
     clip-rule="evenodd"
     d="m 204.448,100 h 52.224 v 104.448 h 109.495 c 45.884,0 83.081,37.197 83.081,83.081 0,89.315 -72.404,161.719 -161.719,161.719 -45.884,0 -83.081,-37.197 -83.081,-83.081 V 256.672 H 100 v -52.224 h 104.448 z m 52.224,156.672 v 109.495 c 0,17.042 13.815,30.857 30.857,30.857 60.472,0 109.495,-49.023 109.495,-109.495 0,-17.042 -13.815,-30.857 -30.857,-30.857 z"
     fill="#ffffff"
     fill-opacity="0.5"
     id="path2" />
  <path
     d="m 256.672,150.592 c 0,-14.421 -11.691,-26.112 -26.112,-26.112 -14.421,0 -26.112,11.691 -26.112,26.112 v 53.856 h -53.856 c -14.421,0 -26.112,11.691 -26.112,26.112 0,14.421 11.691,26.112 26.112,26.112 h 53.856 v 53.856 c 0,14.421 11.691,26.112 26.112,26.112 14.421,0 26.112,-11.691 26.112,-26.112 v -53.856 h 53.856 c 14.421,0 26.112,-11.691 26.112,-26.112 0,-14.421 -11.691,-26.112 -26.112,-26.112 h -53.856 z"
     fill="#ffffff"
     fill-opacity="0.7"
     id="path3" />
  <path
     d="m 312.82,226.23 c 3.333,1.924 3.333,6.736 0,8.66 l -14.376,8.3 c -3.334,1.925 -7.5,-0.481 -7.5,-4.33 v -16.6 c 0,-3.849 4.166,-6.255 7.5,-4.33 z"
     fill="#ffffff"
     id="path4" />
  <path
     d="m 234.89,312.82 c -1.924,3.333 -6.736,3.333 -8.66,0 l -8.3,-14.376 c -1.925,-3.333 0.481,-7.5 4.33,-7.5 h 16.6 c 3.849,0 6.255,4.167 4.33,7.5 z"
     fill="#ffffff"
     id="path5" />
  <path
     d="m 226.23,148.3 c 1.924,-3.333 6.736,-3.333 8.66,0 l 8.3,14.376 c 1.925,3.333 -0.481,7.5 -4.33,7.5 h -16.6 c -3.849,0 -6.255,-4.167 -4.33,-7.5 z"
     fill="#ffffff"
     id="path6" />
  <path
     d="m 148.3,234.89 c -3.334,-1.924 -3.334,-6.736 0,-8.66 l 14.376,-8.3 c 3.333,-1.925 7.5,0.481 7.5,4.33 v 16.6 c 0,3.849 -4.167,6.255 -7.5,4.33 z"
     fill="#ffffff"
     id="path7" />
  <path
     d="m 690.025,446.835 c -20.02,0 -37.73,-4.235 -53.13,-12.705 -15.4,-8.47 -27.463,-20.533 -36.19,-36.19 C 592.235,382.027 588,363.29 588,341.73 V 161.165 h 44.275 V 275.51 h 0.385 c 4.107,-6.93 9.497,-12.962 16.17,-18.095 6.673,-5.133 14.117,-9.112 22.33,-11.935 8.213,-2.823 16.94,-4.235 26.18,-4.235 18.737,0 35.163,4.235 49.28,12.705 14.373,8.213 25.538,19.763 33.495,34.65 8.213,14.887 12.32,32.34 12.32,52.36 0,15.657 -2.438,30.03 -7.315,43.12 -4.62,12.833 -11.422,23.998 -20.405,33.495 -8.727,9.497 -19.378,16.812 -31.955,21.945 -12.577,4.877 -26.822,7.315 -42.735,7.315 z m 0,-37.73 c 11.293,0 21.303,-2.695 30.03,-8.085 8.727,-5.647 15.528,-13.347 20.405,-23.1 4.877,-9.753 7.315,-21.047 7.315,-33.88 0,-12.577 -2.438,-23.742 -7.315,-33.495 -4.877,-9.753 -11.678,-17.453 -20.405,-23.1 -8.47,-5.647 -18.352,-8.47 -29.645,-8.47 -11.293,0 -21.303,2.823 -30.03,8.47 -8.727,5.39 -15.528,12.962 -20.405,22.715 -4.877,9.753 -7.315,21.047 -7.315,33.88 0,12.833 2.438,24.127 7.315,33.88 4.877,9.753 11.678,17.453 20.405,23.1 8.727,5.39 18.608,8.085 29.645,8.085 z"
     fill="#ffffff"
     id="path8" />
  <path
     d="m 902.446,446.835 c -18.737,0 -34.907,-4.62 -48.51,-13.86 -13.604,-9.24 -24.127,-21.56 -31.57,-36.96 -7.187,-15.657 -10.78,-32.853 -10.78,-51.59 0,-19.507 4.106,-36.96 12.32,-52.36 8.47,-15.657 20.405,-27.977 35.805,-36.96 15.656,-9.24 34.265,-13.86 55.825,-13.86 21.303,0 39.398,4.62 54.285,13.86 15.143,8.983 26.693,21.303 34.649,36.96 8.21,15.4 12.32,32.597 12.32,51.59 v 98.56 H 972.516 V 405.64 h -0.77 c -3.85,7.187 -8.855,13.988 -15.015,20.405 -6.16,6.16 -13.732,11.165 -22.715,15.015 -8.984,3.85 -19.507,5.775 -31.57,5.775 z m 11.935,-37.73 c 11.55,0 21.56,-2.823 30.03,-8.47 8.726,-5.903 15.4,-13.732 20.02,-23.485 4.876,-10.01 7.315,-21.175 7.315,-33.495 0,-12.32 -2.31,-23.228 -6.93,-32.725 -4.62,-9.753 -11.165,-17.453 -19.635,-23.1 -8.47,-5.903 -18.609,-8.855 -30.415,-8.855 -12.32,0 -22.844,2.952 -31.57,8.855 -8.727,5.647 -15.4,13.347 -20.02,23.1 -4.62,9.753 -6.93,20.79 -6.93,33.11 0,12.063 2.31,23.1 6.93,33.11 4.62,9.753 11.165,17.582 19.635,23.485 8.726,5.647 19.25,8.47 31.57,8.47 z"
     fill="#ffffff"
     id="path9" />
  <path
     d="m 1090.17,442.215 c -8.47,0 -16.04,-2.053 -22.71,-6.16 -6.68,-4.107 -12.07,-9.625 -16.17,-16.555 -3.85,-6.93 -5.78,-14.502 -5.78,-22.715 0,-8.213 2.06,-15.657 6.16,-22.33 4.11,-6.673 9.76,-12.448 16.94,-17.325 l 85.47,-55.825 c 2.57,-1.283 4.11,-2.695 4.62,-4.235 0.77,-1.54 1.16,-3.08 1.16,-4.62 0,-2.31 -0.9,-4.363 -2.7,-6.16 -1.54,-1.797 -3.72,-2.695 -6.54,-2.695 h -95.48 v -37.73 h 108.57 c 8.47,0 15.91,2.053 22.33,6.16 6.67,4.107 11.93,9.625 15.78,16.555 4.11,6.93 6.16,14.502 6.16,22.715 0,8.213 -2.05,15.657 -6.16,22.33 -4.1,6.673 -9.75,12.448 -16.94,17.325 l -85.08,55.825 c -2.31,1.283 -3.98,2.695 -5.01,4.235 -0.77,1.54 -1.15,3.08 -1.15,4.62 0,2.31 0.9,4.363 2.69,6.16 1.8,1.797 4.11,2.695 6.93,2.695 h 100.87 v 37.73 z"
     fill="#ffffff"
     id="path10" />
  <path
     d="m 1274.13,442.215 c -8.47,0 -16.04,-2.053 -22.71,-6.16 -6.68,-4.107 -12.07,-9.625 -16.17,-16.555 -3.85,-6.93 -5.78,-14.502 -5.78,-22.715 0,-8.213 2.05,-15.657 6.16,-22.33 4.11,-6.673 9.75,-12.448 16.94,-17.325 l 85.47,-55.825 c 2.57,-1.283 4.11,-2.695 4.62,-4.235 0.77,-1.54 1.16,-3.08 1.16,-4.62 0,-2.31 -0.9,-4.363 -2.7,-6.16 -1.54,-1.797 -3.72,-2.695 -6.54,-2.695 h -95.48 v -37.73 h 108.57 c 8.47,0 15.91,2.053 22.33,6.16 6.67,4.107 11.93,9.625 15.78,16.555 4.11,6.93 6.16,14.502 6.16,22.715 0,8.213 -2.05,15.657 -6.16,22.33 -4.11,6.673 -9.75,12.448 -16.94,17.325 l -85.08,55.825 c -2.31,1.283 -3.98,2.695 -5.01,4.235 -0.77,1.54 -1.15,3.08 -1.15,4.62 0,2.31 0.89,4.363 2.69,6.16 1.8,1.797 4.11,2.695 6.93,2.695 h 100.87 v 37.73 z"
     fill="#ffffff"
     id="path11" />
  <path
     d="m 1437.68,442.215 v -196.35 h 44.28 v 196.35 z"
     fill="#ffffff"
     id="path12" />
  <path
     d="m 1602.82,442.215 c -17.45,0 -31.18,-5.005 -41.19,-15.015 C 1551.87,417.19 1547,403.587 1547,386.39 V 196.585 h 43.89 v 187.88 c 0,5.903 1.79,10.78 5.39,14.63 3.59,3.593 8.34,5.39 14.24,5.39 h 41.2 v 37.73 z m -89.7,-158.62 v -37.73 h 138.98 v 37.73 z"
     fill="#ffffff"
     id="path13" />
  <path
     d="m 1786.29,442.215 c -22.08,0 -41.46,-4.107 -58.14,-12.32 -16.43,-8.47 -29.26,-20.02 -38.5,-34.65 -9.24,-14.887 -13.86,-31.955 -13.86,-51.205 0,-20.277 4.11,-38.115 12.32,-53.515 8.21,-15.4 19.51,-27.463 33.88,-36.19 14.37,-8.727 30.93,-13.09 49.67,-13.09 21.04,0 38.37,4.492 51.97,13.475 13.6,8.983 23.61,21.047 30.03,36.19 6.67,15.143 10.01,32.083 10.01,50.82 0,2.567 -0.13,5.518 -0.38,8.855 -0.26,3.337 -0.65,5.903 -1.16,7.7 h -139.37 c 1.54,10.267 5.26,18.865 11.17,25.795 5.9,6.673 13.34,11.807 22.33,15.4 8.98,3.337 18.99,5.005 30.03,5.005 h 52.74 v 37.73 z m -63.91,-113.96 h 97.02 c -0.26,-4.877 -1.03,-9.753 -2.31,-14.63 -1.03,-4.877 -2.83,-9.497 -5.39,-13.86 -2.31,-4.363 -5.39,-8.085 -9.24,-11.165 -3.6,-3.337 -7.96,-5.903 -13.09,-7.7 -5.14,-2.053 -11.04,-3.08 -17.71,-3.08 -7.7,0 -14.51,1.54 -20.41,4.62 -5.9,2.823 -10.91,6.673 -15.01,11.55 -4.11,4.62 -7.32,10.01 -9.63,16.17 -2.05,5.903 -3.46,11.935 -4.23,18.095 z"
     fill="#ffffff"
     id="path14" />
  <path
     d="m 1439.61,210.06 c 5.64,5.647 12.32,8.47 20.02,8.47 7.95,0 14.63,-2.823 20.02,-8.47 5.64,-5.647 8.47,-12.32 8.47,-20.02 0,-7.7 -2.83,-14.373 -8.47,-20.02 -5.39,-5.647 -12.07,-8.47 -20.02,-8.47 -7.7,0 -14.38,2.823 -20.02,8.47 -5.65,5.647 -8.47,12.32 -8.47,20.02 0,7.7 2.82,14.373 8.47,20.02 z"
     fill="url(#paint1_linear_1016_57)"
     id="path15"
     style="fill:url(#paint1_linear_1016_57)" />
  <defs
     id="defs18">
    <linearGradient
       id="paint0_linear_1016_57"
       x1="100"
       y1="100"
       x2="508"
       y2="508"
       gradientUnits="userSpaceOnUse">
      <stop
         offset="0.0684898"
         stop-color="#0047AB"
         id="stop15" />
      <stop
         offset="0.741212"
         stop-color="#8A2BE2"
         id="stop16" />
    </linearGradient>
    <linearGradient
       id="paint1_linear_1016_57"
       x1="1459.63"
       y1="161.55"
       x2="1459.63"
       y2="218.53"
       gradientUnits="userSpaceOnUse">
      <stop
         stop-color="#59CAFD"
         id="stop17" />
      <stop
         offset="1"
         stop-color="#2B50EF"
         id="stop18" />
    </linearGradient>
  </defs>
</svg>

<svg width="1964" height="608" viewBox="0 0 1964 608" fill="none" xmlns="http://www.w3.org/2000/svg">
<path d="M100 181.6C100 136.534 136.534 100 181.6 100H304C416.666 100 508 191.334 508 304C508 416.666 416.666 508 304 508C191.334 508 100 416.666 100 304V181.6Z" fill="url(#paint0_linear_1016_57)"/>
<path fill-rule="evenodd" clip-rule="evenodd" d="M204.448 100H256.672V204.448H366.167C412.051 204.448 449.248 241.645 449.248 287.529C449.248 376.844 376.844 449.248 287.529 449.248C241.645 449.248 204.448 412.051 204.448 366.167V256.672H100L100 204.448L204.448 204.448V100ZM256.672 256.672V366.167C256.672 383.209 270.487 397.024 287.529 397.024C348.001 397.024 397.024 348.001 397.024 287.529C397.024 270.487 383.209 256.672 366.167 256.672H256.672Z" fill="white" fill-opacity="0.5"/>
<path d="M256.672 150.592C256.672 136.171 244.981 124.48 230.56 124.48C216.139 124.48 204.448 136.171 204.448 150.592L204.448 204.448H150.592C136.171 204.448 124.48 216.139 124.48 230.56C124.48 244.981 136.171 256.672 150.592 256.672H204.448V310.528C204.448 324.949 216.139 336.64 230.56 336.64C244.981 336.64 256.672 324.949 256.672 310.528V256.672H310.528C324.949 256.672 336.64 244.981 336.64 230.56C336.64 216.139 324.949 204.448 310.528 204.448H256.672L256.672 150.592Z" fill="white" fill-opacity="0.7"/>
<path d="M312.82 226.23C316.153 228.154 316.153 232.966 312.82 234.89L298.444 243.19C295.11 245.115 290.944 242.709 290.944 238.86L290.944 222.26C290.944 218.411 295.11 216.005 298.444 217.93L312.82 226.23Z" fill="white"/>
<path d="M234.89 312.82C232.966 316.153 228.154 316.153 226.23 312.82L217.93 298.444C216.005 295.111 218.411 290.944 222.26 290.944L238.86 290.944C242.709 290.944 245.115 295.111 243.19 298.444L234.89 312.82Z" fill="white"/>
<path d="M226.23 148.3C228.154 144.967 232.966 144.967 234.89 148.3L243.19 162.676C245.115 166.009 242.709 170.176 238.86 170.176H222.26C218.411 170.176 216.005 166.009 217.93 162.676L226.23 148.3Z" fill="white"/>
<path d="M148.3 234.89C144.966 232.966 144.966 228.154 148.3 226.23L162.676 217.93C166.009 216.005 170.176 218.411 170.176 222.26L170.176 238.86C170.176 242.709 166.009 245.115 162.676 243.19L148.3 234.89Z" fill="white"/>
<path d="M690.025 446.835C670.005 446.835 652.295 442.6 636.895 434.13C621.495 425.66 609.432 413.597 600.705 397.94C592.235 382.027 588 363.29 588 341.73V161.165H632.275V275.51H632.66C636.767 268.58 642.157 262.548 648.83 257.415C655.503 252.282 662.947 248.303 671.16 245.48C679.373 242.657 688.1 241.245 697.34 241.245C716.077 241.245 732.503 245.48 746.62 253.95C760.993 262.163 772.158 273.713 780.115 288.6C788.328 303.487 792.435 320.94 792.435 340.96C792.435 356.617 789.997 370.99 785.12 384.08C780.5 396.913 773.698 408.078 764.715 417.575C755.988 427.072 745.337 434.387 732.76 439.52C720.183 444.397 705.938 446.835 690.025 446.835ZM690.025 409.105C701.318 409.105 711.328 406.41 720.055 401.02C728.782 395.373 735.583 387.673 740.46 377.92C745.337 368.167 747.775 356.873 747.775 344.04C747.775 331.463 745.337 320.298 740.46 310.545C735.583 300.792 728.782 293.092 720.055 287.445C711.585 281.798 701.703 278.975 690.41 278.975C679.117 278.975 669.107 281.798 660.38 287.445C651.653 292.835 644.852 300.407 639.975 310.16C635.098 319.913 632.66 331.207 632.66 344.04C632.66 356.873 635.098 368.167 639.975 377.92C644.852 387.673 651.653 395.373 660.38 401.02C669.107 406.41 678.988 409.105 690.025 409.105Z" fill="white"/>
<path d="M902.446 446.835C883.709 446.835 867.539 442.215 853.936 432.975C840.332 423.735 829.809 411.415 822.366 396.015C815.179 380.358 811.586 363.162 811.586 344.425C811.586 324.918 815.692 307.465 823.906 292.065C832.376 276.408 844.311 264.088 859.711 255.105C875.367 245.865 893.976 241.245 915.536 241.245C936.839 241.245 954.934 245.865 969.821 255.105C984.964 264.088 996.514 276.408 1004.47 292.065C1012.68 307.465 1016.79 324.662 1016.79 343.655V442.215H972.516V405.64H971.746C967.896 412.827 962.891 419.628 956.731 426.045C950.571 432.205 942.999 437.21 934.016 441.06C925.032 444.91 914.509 446.835 902.446 446.835ZM914.381 409.105C925.931 409.105 935.941 406.282 944.411 400.635C953.137 394.732 959.811 386.903 964.431 377.15C969.307 367.14 971.746 355.975 971.746 343.655C971.746 331.335 969.436 320.427 964.816 310.93C960.196 301.177 953.651 293.477 945.181 287.83C936.711 281.927 926.572 278.975 914.766 278.975C902.446 278.975 891.922 281.927 883.196 287.83C874.469 293.477 867.796 301.177 863.176 310.93C858.556 320.683 856.246 331.72 856.246 344.04C856.246 356.103 858.556 367.14 863.176 377.15C867.796 386.903 874.341 394.732 882.811 400.635C891.537 406.282 902.061 409.105 914.381 409.105Z" fill="white"/>
<path d="M1090.17 442.215C1081.7 442.215 1074.13 440.162 1067.46 436.055C1060.78 431.948 1055.39 426.43 1051.29 419.5C1047.44 412.57 1045.51 404.998 1045.51 396.785C1045.51 388.572 1047.57 381.128 1051.67 374.455C1055.78 367.782 1061.43 362.007 1068.61 357.13L1154.08 301.305C1156.65 300.022 1158.19 298.61 1158.7 297.07C1159.47 295.53 1159.86 293.99 1159.86 292.45C1159.86 290.14 1158.96 288.087 1157.16 286.29C1155.62 284.493 1153.44 283.595 1150.62 283.595H1055.14V245.865H1163.71C1172.18 245.865 1179.62 247.918 1186.04 252.025C1192.71 256.132 1197.97 261.65 1201.82 268.58C1205.93 275.51 1207.98 283.082 1207.98 291.295C1207.98 299.508 1205.93 306.952 1201.82 313.625C1197.72 320.298 1192.07 326.073 1184.88 330.95L1099.8 386.775C1097.49 388.058 1095.82 389.47 1094.79 391.01C1094.02 392.55 1093.64 394.09 1093.64 395.63C1093.64 397.94 1094.54 399.993 1096.33 401.79C1098.13 403.587 1100.44 404.485 1103.26 404.485H1204.13V442.215H1090.17Z" fill="white"/>
<path d="M1274.13 442.215C1265.66 442.215 1258.09 440.162 1251.42 436.055C1244.74 431.948 1239.35 426.43 1235.25 419.5C1231.4 412.57 1229.47 404.998 1229.47 396.785C1229.47 388.572 1231.52 381.128 1235.63 374.455C1239.74 367.782 1245.38 362.007 1252.57 357.13L1338.04 301.305C1340.61 300.022 1342.15 298.61 1342.66 297.07C1343.43 295.53 1343.82 293.99 1343.82 292.45C1343.82 290.14 1342.92 288.087 1341.12 286.29C1339.58 284.493 1337.4 283.595 1334.58 283.595H1239.1V245.865H1347.67C1356.14 245.865 1363.58 247.918 1370 252.025C1376.67 256.132 1381.93 261.65 1385.78 268.58C1389.89 275.51 1391.94 283.082 1391.94 291.295C1391.94 299.508 1389.89 306.952 1385.78 313.625C1381.67 320.298 1376.03 326.073 1368.84 330.95L1283.76 386.775C1281.45 388.058 1279.78 389.47 1278.75 391.01C1277.98 392.55 1277.6 394.09 1277.6 395.63C1277.6 397.94 1278.49 399.993 1280.29 401.79C1282.09 403.587 1284.4 404.485 1287.22 404.485H1388.09V442.215H1274.13Z" fill="white"/>
<path d="M1437.68 442.215V245.865H1481.96V442.215H1437.68Z" fill="white"/>
<path d="M1602.82 442.215C1585.37 442.215 1571.64 437.21 1561.63 427.2C1551.87 417.19 1547 403.587 1547 386.39V196.585H1590.89V384.465C1590.89 390.368 1592.68 395.245 1596.28 399.095C1599.87 402.688 1604.62 404.485 1610.52 404.485H1651.72V442.215H1602.82ZM1513.12 283.595V245.865H1652.1V283.595H1513.12Z" fill="white"/>
<path d="M1786.29 442.215C1764.21 442.215 1744.83 438.108 1728.15 429.895C1711.72 421.425 1698.89 409.875 1689.65 395.245C1680.41 380.358 1675.79 363.29 1675.79 344.04C1675.79 323.763 1679.9 305.925 1688.11 290.525C1696.32 275.125 1707.62 263.062 1721.99 254.335C1736.36 245.608 1752.92 241.245 1771.66 241.245C1792.7 241.245 1810.03 245.737 1823.63 254.72C1837.23 263.703 1847.24 275.767 1853.66 290.91C1860.33 306.053 1863.67 322.993 1863.67 341.73C1863.67 344.297 1863.54 347.248 1863.29 350.585C1863.03 353.922 1862.64 356.488 1862.13 358.285H1722.76C1724.3 368.552 1728.02 377.15 1733.93 384.08C1739.83 390.753 1747.27 395.887 1756.26 399.48C1765.24 402.817 1775.25 404.485 1786.29 404.485H1839.03V442.215H1786.29ZM1722.38 328.255H1819.4C1819.14 323.378 1818.37 318.502 1817.09 313.625C1816.06 308.748 1814.26 304.128 1811.7 299.765C1809.39 295.402 1806.31 291.68 1802.46 288.6C1798.86 285.263 1794.5 282.697 1789.37 280.9C1784.23 278.847 1778.33 277.82 1771.66 277.82C1763.96 277.82 1757.15 279.36 1751.25 282.44C1745.35 285.263 1740.34 289.113 1736.24 293.99C1732.13 298.61 1728.92 304 1726.61 310.16C1724.56 316.063 1723.15 322.095 1722.38 328.255Z" fill="white"/>
<path d="M1439.61 210.06C1445.25 215.707 1451.93 218.53 1459.63 218.53C1467.58 218.53 1474.26 215.707 1479.65 210.06C1485.29 204.413 1488.12 197.74 1488.12 190.04C1488.12 182.34 1485.29 175.667 1479.65 170.02C1474.26 164.373 1467.58 161.55 1459.63 161.55C1451.93 161.55 1445.25 164.373 1439.61 170.02C1433.96 175.667 1431.14 182.34 1431.14 190.04C1431.14 197.74 1433.96 204.413 1439.61 210.06Z" fill="url(#paint1_linear_1016_57)"/>
<defs>
<linearGradient id="paint0_linear_1016_57" x1="100" y1="100" x2="508" y2="508" gradientUnits="userSpaceOnUse">
<stop offset="0.0684898" stop-color="#0047AB"/>
<stop offset="0.741212" stop-color="#8A2BE2"/>
</linearGradient>
<linearGradient id="paint1_linear_1016_57" x1="1459.63" y1="161.55" x2="1459.63" y2="218.53" gradientUnits="userSpaceOnUse">
<stop stop-color="#59CAFD"/>
<stop offset="1" stop-color="#2B50EF"/>
</linearGradient>
</defs>
</svg>
